static/assets/head_icons_png/man/bizi/1026050.svg

<svg xmlns="http://www.w3.org/2000/svg" width="7" height="7"><g transform="translate(3.05 3.3)"><path d="M2.6.8L1.5.95q-.35.6-1.85.6-1 0-1-1.05l.1-.7.2-.15L-1-.4l.35-.15.05-.05h.2l.05-.45-.2-1.15v-.05l-.1-.2v.05l-.3-.6L2.1-.55q.7.6.8 1.55L2.6.8" fill="#fedec1"/><path d="M1.9 1.7v.4l-.45.1-.45.2-1 .25q-.6.1-1-.3h-.6L-2 1.9q0-.35.35-.35.15 0 .65.45.45.45 1.05.45.6-.05.9-.55l.3-.2q.4-.2.65 0" fill="#823909"/><radialGradient id="a" gradientUnits="userSpaceOnUse" gradientTransform="translate(.05 2.9) scale(.00421)" spreadMethod="pad" cx="0" cy="0" r="819.2" fx="0" fy="0"><stop offset="0" stop-color="#f39b61"/><stop offset="1" stop-color="#f8be98"/></radialGradient><path d="M-2.15.8q.4-.05.55.2l.35-1.2-.1.7q0 1.05 1 1.05 1.5 0 1.85-.6L2.6.8l.3.2.05.05q.45 1.4-1.45 1.4l-.2.4-1.1.45q-.9.1-1.55-.7l-.6-.1q-.65 0-.8-.8V1.4l.05-.1q.1-.45.55-.5M-.6-1.3l-.05-1.1v-.05l.1.2v.05l.2 1.15-.05.45h-.2l-.05.05.05-.75m1.85 3l-.3.2q-.3.5-.9.55-.6 0-1.05-.45-.5-.45-.65-.45-.35 0-.35.35l.4.45h.6q.4.4 1 .3l1-.25.45-.2.45-.1v-.4q-.25-.2-.65 0" fill="url(#a)"/><radialGradient id="b" gradientUnits="userSpaceOnUse" gradientTransform="matrix(.00159 .00092 -.00151 .00262 -1.2 -.6)" spreadMethod="pad" cx="0" cy="0" r="819.2" fx="210473" fy="0"><stop offset=".337" stop-color="#f9c29f"/><stop offset="1" stop-color="#fedec1" stop-opacity="0"/></radialGradient><path d="M-2.7 1.3v-.05L-3.05.3q0-1.4 1.95-3.6l.15.3.3.6.05 1.1-.05.75L-1-.4l-.05.05-.2.15L-1.6 1q-.15-.25-.55-.2-.45.05-.55.5" fill="url(#b)"/><radialGradient id="c" gradientUnits="userSpaceOnUse" gradientTransform="matrix(.00053 .00003 -.00003 .00053 -.35 .25)" spreadMethod="pad" cx="0" cy="0" r="819.2" fx="0" fy="0"><stop offset=".314" stop-color="#fff" stop-opacity=".431"/><stop offset="1" stop-color="#fff" stop-opacity="0"/></radialGradient><path d="M-.8.25l.15-.3.3-.15.3.15.1.3-.15.3-.3.15-.3-.15-.1-.3" fill="url(#c)"/></g></svg>

<?xml version="1.0" encoding="utf-8"?>
<svg version="1.1" id="Layer_1"
xmlns="http://www.w3.org/2000/svg"
xmlns:xlink="http://www.w3.org/1999/xlink"
xmlns:author="http://www.sothink.com"
width="7px" height="7px"
xml:space="preserve">
<g id="466" transform="matrix(1, 0, 0, 1, 3.05, 3.3)">
<path style="fill:#FEDEC1;fill-opacity:1" d="M2.6,0.8L1.5 0.95Q1.15 1.55 -0.35 1.55Q-1.35 1.55 -1.35 0.5L-1.25 -0.2L-1.05 -0.35L-1 -0.4L-0.65 -0.55L-0.6 -0.6L-0.4 -0.6L-0.35 -1.05L-0.55 -2.2L-0.55 -2.25L-0.65 -2.45L-0.65 -2.4L-0.95 -3L2.1 -0.55Q2.8 0.05 2.9 1L2.6 0.8" />
<path style="fill:#823909;fill-opacity:1" d="M1.9,1.7L1.9 2.1L1.45 2.2L1 2.4L0 2.65Q-0.6 2.75 -1 2.35L-1.6 2.35L-2 1.9Q-2 1.55 -1.65 1.55Q-1.5 1.55 -1 2Q-0.55 2.45 0.05 2.45Q0.65 2.4 0.95 1.9L1.25 1.7Q1.65 1.5 1.9 1.7" />
<radialGradient
id="RadialGradID_4062" gradientUnits="userSpaceOnUse" gradientTransform="matrix(0.00421143, 0, 0, 0.00421143, 0.05, 2.9)" spreadMethod ="pad" cx="0" cy="0" r="819.2" fx="0" fy="0" >
<stop  offset="0"  style="stop-color:#F39B61;stop-opacity:1" />
<stop  offset="1"  style="stop-color:#F8BE98;stop-opacity:1" />
</radialGradient>
<path style="fill:url(#RadialGradID_4062) " d="M-2.15,0.8Q-1.75 0.75 -1.6 1L-1.25 -0.2L-1.35 0.5Q-1.35 1.55 -0.35 1.55Q1.15 1.55 1.5 0.95L2.6 0.8L2.9 1L2.95 1.05Q3.4 2.45 1.5 2.45L1.3 2.85L0.2 3.3Q-0.7 3.4 -1.35 2.6L-1.95 2.5Q-2.6 2.5 -2.75 1.7L-2.75 1.65L-2.75 1.5L-2.75 1.4L-2.7 1.3Q-2.6 0.85 -2.15 0.8M-0.6,-1.3L-0.65 -2.4L-0.65 -2.45L-0.55 -2.25L-0.55 -2.2L-0.35 -1.05L-0.4 -0.6L-0.6 -0.6L-0.65 -0.55L-0.6 -1.3M1.25,1.7L0.95 1.9Q0.65 2.4 0.05 2.45Q-0.55 2.45 -1 2Q-1.5 1.55 -1.65 1.55Q-2 1.55 -2 1.9L-1.6 2.35L-1 2.35Q-0.6 2.75 0 2.65L1 2.4L1.45 2.2L1.9 2.1L1.9 1.7Q1.65 1.5 1.25 1.7" />
<radialGradient
id="RadialGradID_4063" gradientUnits="userSpaceOnUse" gradientTransform="matrix(0.00158691, 0.000915527, -0.00151062, 0.00262451, -1.2, -0.6)" spreadMethod ="pad" cx="0" cy="0" r="819.2" fx="210473" fy="0" >
<stop  offset="0.337255"  style="stop-color:#F9C29F;stop-opacity:1" />
<stop  offset="1"  style="stop-color:#FEDEC1;stop-opacity:0" />
</radialGradient>
<path style="fill:url(#RadialGradID_4063) " d="M-2.7,1.3L-2.7 1.25L-3.05 0.3Q-3.05 -1.1 -1.1 -3.3L-0.95 -3L-0.65 -2.4L-0.6 -1.3L-0.65 -0.55L-1 -0.4L-1.05 -0.35L-1.25 -0.2L-1.6 1Q-1.75 0.75 -2.15 0.8Q-2.6 0.85 -2.7 1.3" />
<radialGradient
id="RadialGradID_4064" gradientUnits="userSpaceOnUse" gradientTransform="matrix(0.000534058, 3.05176e-005, -3.05176e-005, 0.000534058, -0.35, 0.25)" spreadMethod ="pad" cx="0" cy="0" r="819.2" fx="0" fy="0" >
<stop  offset="0.313725"  style="stop-color:#FFFFFF;stop-opacity:0.431373" />
<stop  offset="1"  style="stop-color:#FFFFFF;stop-opacity:0" />
</radialGradient>
<path style="fill:url(#RadialGradID_4064) " d="M-0.8,0.25L-0.65 -0.05L-0.35 -0.2L-0.05 -0.05L0.05 0.25L-0.1 0.55L-0.4 0.7L-0.7 0.55L-0.8 0.25" />
</g>
</svg>
